image/box-icons-item2.svg

<svg fill="none" height="48" viewBox="0 0 48 48" width="48" xmlns="http://www.w3.org/2000/svg"><path clip-rule="evenodd" d="m36.509.602523c.8034-.803364 2.1059-.803364 2.9093.000001l7.9792 7.979226c.8033.80336.8033 2.10585 0 2.90925-.8034.8033-2.1059.8033-2.9093 0l-2.5349-2.53501-3.0752 3.07521 2.3681 2.3681c.987.987 1.8087 1.8086 2.4301 2.5318.6468.7529 1.1881 1.5226 1.5223 2.4408.6191 1.7009.6191 3.5657 0 5.2666-.3342.9182-.8755 1.6879-1.5223 2.4408-.6214.7232-1.4431 1.5448-2.4301 2.5318l-1.8261 1.8261c-.0006.0006.0006-.0006 0 0s-.0031.003-.0037.0036l-5.9803 5.9804c-.0007.0007-.0015.0015-.0023.0023-.0007.0007-.0015.0015-.0022.0022l-3.9874 3.9874c-.123.123-.2476.2437-.3736.362-.0393.0469-.081.0925-.1251.1367-.0935.0935-.1937.1761-.2992.2478-5.8319 5.1024-14.4562 5.3078-20.51304.6164l-4.6215 4.6215c-.80336.8033-2.10587.8033-2.909236 0-.803365-.8034-.803365-2.1059-.000001-2.9093l4.621497-4.6215c-4.910475-6.3395-4.456167-15.4918 1.36292-21.3109l11.80196-11.80201c.987-.98706 1.8086-1.80869 2.5318-2.43006.7529-.64685 1.5226-1.18817 2.4408-1.52235 1.701-.6191 3.5657-.6191 5.2666 0 .9182.33418 1.6879.8755 2.4408 1.52235.7232.62139 1.5448 1.44305 2.5319 2.43014l2.368 2.36806 3.0752-3.07518-2.535-2.53499c-.8033-.80336-.8033-2.10587 0-2.909237zm-5.7628 9.115297c-1.0558-1.05581-1.7676-1.76573-2.3586-2.27348-.5746-.49375-.9094-.68316-1.1666-.77679-.7921-.28827-1.6603-.28827-2.4523 0-.2573.09363-.5921.28304-1.1667.77679-.591.50775-1.3028 1.21767-2.3586 2.27348l-.3186.31858 17.0388 17.0388.3186-.3186c1.0558-1.0558 1.7657-1.7676 2.2735-2.3586.4937-.5746.6831-.9094.7768-1.1667.2882-.792.2882-1.6602 0-2.4523-.0937-.2572-.2831-.592-.7768-1.1666-.5078-.591-1.2177-1.3028-2.2735-2.3586zm4.3082 20.26658-17.0388-17.0388-8.51942 8.5194c-4.70514 4.7051-4.70514 12.3337 0 17.0388 4.03302 4.033 10.21382 4.6091 14.86052 1.7284l-2.835-2.835c-.8033-.8034-.8033-2.1059 0-2.9092.8034-.8034 2.1059-.8034 2.9093 0l3.0599 3.0599 1.5791-1.5791-6.4595-6.4595c-.8034-.8034-.8034-2.1059 0-2.9092.8033-.8034 2.1058-.8034 2.9092 0l6.4595 6.4595z" fill="#4b4b4b" fill-rule="evenodd"/></svg>

<svg width="48" height="48" viewBox="0 0 48 48" fill="none" xmlns="http://www.w3.org/2000/svg">
<path fill-rule="evenodd" clip-rule="evenodd" d="M36.509 0.602523C37.3124 -0.200841 38.6149 -0.200841 39.4183 0.602524L47.3975 8.58175C48.2008 9.38511 48.2008 10.6876 47.3975 11.491C46.5941 12.2943 45.2916 12.2943 44.4882 11.491L41.9533 8.95599L38.8781 12.0312L41.2462 14.3993C42.2332 15.3863 43.0549 16.2079 43.6763 16.9311C44.3231 17.684 44.8644 18.4537 45.1986 19.3719C45.8177 21.0728 45.8177 22.9376 45.1986 24.6385C44.8644 25.5567 44.3231 26.3264 43.6763 27.0793C43.0549 27.8025 42.2332 28.6241 41.2462 29.6111L39.4201 31.4372C39.4195 31.4378 39.4207 31.4366 39.4201 31.4372C39.4195 31.4378 39.417 31.4402 39.4164 31.4408L33.4361 37.4212C33.4354 37.4219 33.4346 37.4227 33.4338 37.4235C33.4331 37.4242 33.4323 37.425 33.4316 37.4257L29.4442 41.4131C29.3212 41.5361 29.1966 41.6568 29.0706 41.7751C29.0313 41.822 28.9896 41.8676 28.9455 41.9118C28.852 42.0053 28.7518 42.0879 28.6463 42.1596C22.8144 47.262 14.1901 47.4674 8.13326 42.776L3.51176 47.3975C2.7084 48.2008 1.40589 48.2008 0.602524 47.3975C-0.200841 46.5941 -0.200841 45.2916 0.602523 44.4882L5.22402 39.8667C0.313545 33.5272 0.767853 24.3749 6.58694 18.5558L18.3889 6.75379C19.3759 5.76673 20.1975 4.9451 20.9207 4.32373C21.6736 3.67688 22.4433 3.13556 23.3615 2.80138C25.0625 2.18228 26.9272 2.18228 28.6281 2.80138C29.5463 3.13556 30.316 3.67688 31.0689 4.32373C31.7921 4.94512 32.6137 5.76678 33.6008 6.75387L35.9688 9.12193L39.044 6.04675L36.509 3.51176C35.7057 2.7084 35.7057 1.40589 36.509 0.602523ZM30.7462 9.71782C29.6904 8.66201 28.9786 7.95209 28.3876 7.44434C27.813 6.95059 27.4782 6.76118 27.221 6.66755C26.4289 6.37928 25.5607 6.37928 24.7687 6.66755C24.5114 6.76118 24.1766 6.95059 23.602 7.44434C23.011 7.95209 22.2992 8.66201 21.2434 9.71782L20.9248 10.0364L37.9636 27.0752L38.2822 26.7566C39.338 25.7008 40.0479 24.989 40.5557 24.398C41.0494 23.8234 41.2388 23.4886 41.3325 23.2313C41.6207 22.4393 41.6207 21.5711 41.3325 20.779C41.2388 20.5218 41.0494 20.187 40.5557 19.6124C40.0479 19.0214 39.338 18.3096 38.2822 17.2538L30.7462 9.71782ZM35.0544 29.9844L18.0156 12.9456L9.49618 21.465C4.79104 26.1701 4.79104 33.7987 9.49618 38.5038C13.5292 42.5368 19.71 43.1129 24.3567 40.2322L21.5217 37.3972C20.7184 36.5938 20.7184 35.2913 21.5217 34.488C22.3251 33.6846 23.6276 33.6846 24.431 34.488L27.4909 37.5479L29.07 35.9688L22.6105 29.5093C21.8071 28.7059 21.8071 27.4034 22.6105 26.6001C23.4138 25.7967 24.7163 25.7967 25.5197 26.6001L31.9792 33.0596L35.0544 29.9844Z" fill="#4B4B4B"/>
</svg>
